component-icons/svg/localization.svg

<?xml version="1.0" encoding="utf-8"?>
<!-- Generator: Adobe Illustrator 24.2.3, SVG Export Plug-In . SVG Version: 6.00 Build 0)  -->
<svg version="1.1" id="Layer_1" xmlns="http://www.w3.org/2000/svg" xmlns:xlink="http://www.w3.org/1999/xlink" x="0px" y="0px"
	 width="24px" height="24px" viewBox="0 0 24 24" enable-background="new 0 0 24 24" xml:space="preserve">
<path d="M17,5H5v2h10L17,5z M0,0v16h4v7l7-7h13V0H0z M22,14H10l-4,4v-4H2V2h20V14z M13,9H5v2h6L13,9z"/>
</svg>

<svg id="Layer_1" data-name="Layer 1" xmlns="http://www.w3.org/2000/svg" viewBox="0 0 24 24">
  <defs>
    <style>
      .cls-1 {
        fill: gray;
      }
    </style>
  </defs>
  <title>localization</title>
  <path class="cls-1" d="M17,5H5V7H15ZM0,0V16H4v7l7-7H24V0ZM22,14H10L6,18V14H2V2H22ZM13,9H5v2h6Z"/>
</svg>
